packages/foundations/assets/icons/functional/images/file/folder_open_24.svg

<svg width="24" height="24" viewBox="0 0 24 24" fill="none" xmlns="http://www.w3.org/2000/svg">
<g clip-path="url(#clip0_185_945)">
<path fill-rule="evenodd" clip-rule="evenodd" d="M10.5001 4C10.7211 4 10.9773 4.08054 11.1791 4.25929L12.9151 6H18.0032C19.3287 6 20.503 7.05981 20.503 8.5L20.5037 9.80103C21.2837 10.2242 21.9367 11.1592 21.7934 12.2921L21.1435 17.8454C21.0001 19.0389 19.9437 20 18.6663 20H5.33401C3.89028 20 3.00013 18.8896 2.86061 17.8454L2.20407 12.2921C2.08077 11.2441 2.62465 10.2713 3.50009 9.79893L3.50026 6.5C3.50026 5.17452 4.56518 4 6.00026 4H10.5001ZM4.67768 11.5C4.39213 11.5 4.18415 11.7635 4.18415 12L4.83743 17.5584C4.86376 17.7822 5.06443 18 5.33401 18H18.6663C18.9688 18 19.0984 17.7686 19.1595 17.5584L19.8131 12C19.8131 11.7545 19.6284 11.5284 19.3553 11.5H4.67768ZM10.0851 6H6.00026C5.7548 6 5.5 6.19359 5.5 6.5L5.49971 9.5H18.5027L18.5032 8.5C18.5032 8.25454 18.3149 8 18.0032 8H12.5001C12.2791 8 12.0036 7.92005 11.769 7.69276L10.0851 6Z" fill="#1A1C1F"/>
</g>
<defs>
<clipPath id="clip0_185_945">
<rect width="24" height="24" fill="white"/>
</clipPath>
</defs>
</svg>

<svg xmlns="http://www.w3.org/2000/svg" width="24" height="24" fill="none"><g clip-path="url(#a)"><path fill="#1A1C1F" fill-rule="evenodd" d="M10.5 4c.221 0 .477.08.68.26L12.914 6h5.088c1.326 0 2.5 1.06 2.5 2.5v1.301c.78.423 1.434 1.358 1.29 2.491l-.65 5.553C21 19.04 19.944 20 18.667 20H5.334C3.89 20 3 18.89 2.861 17.845l-.657-5.553A2.5 2.5 0 0 1 3.5 9.8V6.5C3.5 5.175 4.565 4 6 4zm-5.822 7.5c-.286 0-.494.264-.494.5l.653 5.558a.51.51 0 0 0 .497.442h13.332c.303 0 .432-.231.494-.442L19.813 12a.505.505 0 0 0-.458-.5zM10.085 6H6a.5.5 0 0 0-.5.5v3h13.003v-1c0-.245-.188-.5-.5-.5H12.5c-.22 0-.496-.08-.731-.307z" clip-rule="evenodd"/></g><defs><clipPath id="a"><path fill="#fff" d="M0 0h24v24H0z"/></clipPath></defs></svg>
